X: 6
T: Tom Keane's
M: 4/4
L: 1/8
R: reel
K: G Mixolydian 
|: GA |\ 
BGGG (3BAG dc | BGGE F3 c |\ 
BGGG BGdc | BGAF G2 :|
(3ABc |\
dgge dedc | Bcde f3 e |\ 
dgge dedc | BGAF G2 (3ABc |
dgge dedc | Bcde f2 ef |\ 
ge (3fed ecdc | BGAF G2 |]
